qml/pages/img/open_url.svg

<?xml version="1.0" encoding="UTF-8" standalone="no"?>
<!-- Created with Inkscape (http://www.inkscape.org/) -->

<svg
   xmlns:dc="http://purl.org/dc/elements/1.1/"
   xmlns:cc="http://creativecommons.org/ns#"
   xmlns:rdf="http://www.w3.org/1999/02/22-rdf-syntax-ns#"
   xmlns:svg="http://www.w3.org/2000/svg"
   xmlns="http://www.w3.org/2000/svg"
   xmlns:sodipodi="http://sodipodi.sourceforge.net/DTD/sodipodi-0.dtd"
   xmlns:inkscape="http://www.inkscape.org/namespaces/inkscape"
   width="64px"
   height="64px"
   version="1.1"
   viewBox="0 0 64 64"
   xml:space="preserve"
   sodipodi:docname="open_url.svg"
   inkscape:version="0.92.4 (unknown)">
  <metadata>
    <rdf:RDF>
      <cc:Work rdf:about="">
        <dc:format>image/svg+xml</dc:format>
        <dc:type rdf:resource="http://purl.org/dc/dcmitype/StillImage" />
        <dc:title/>
      </cc:Work>
    </rdf:RDF>
  </metadata>
  <path
      d="m 50.181818,32 c -1.004091,0 -1.818182,0.814091 -1.818182,1.818182 v 12.727272 c 0,1.004546 -0.813636,1.818182 -1.818182,1.818182 H 17.454546 C 16.45,48.363636 15.636364,47.55 15.636364,46.545454 V 17.454546 c 0,-1.004546 0.813636,-1.818182 1.818182,-1.818182 H 30.181818 C 31.185909,15.636364 32,14.822273 32,13.818182 32,12.814091 31.185909,12 30.181818,12 H 17.454546 C 14.442273,12 12,14.442273 12,17.454546 V 46.545454 C 12,49.557727 14.442273,52 17.454546,52 H 46.545454 C 49.557727,52 52,49.557727 52,46.545454 V 33.818182 C 52,32.814091 51.185909,32 50.181818,32 Z"
      inkscape:connector-curvature="0"
      style="opacity:0.5;fill:#ffffff;fill-opacity:1;stroke-width:0"/>
  <path
      d="m 51.998182,13.799091 c -0.0014,-0.113182 -0.01182,-0.226364 -0.03409,-0.337273 -0.01046,-0.05091 -0.02954,-0.09818 -0.04409,-0.147727 -0.01818,-0.06454 -0.03364,-0.129545 -0.05954,-0.192273 -0.02273,-0.05546 -0.05454,-0.105 -0.08273,-0.157272 -0.02818,-0.05227 -0.05136,-0.106364 -0.085,-0.156364 -0.05454,-0.08136 -0.118636,-0.155455 -0.185,-0.226818 -0.01454,-0.01591 -0.025,-0.03409 -0.04046,-0.04909 -0.01409,-0.01409 -0.03046,-0.02318 -0.04546,-0.03682 -0.07226,-0.06818 -0.148172,-0.133182 -0.231354,-0.18909 -0.04909,-0.03273 -0.102727,-0.05591 -0.15409,-0.08364 -0.05273,-0.02818 -0.103637,-0.06046 -0.159091,-0.08364 -0.06318,-0.02636 -0.128637,-0.04137 -0.194091,-0.06 -0.04863,-0.01409 -0.09546,-0.03318 -0.145909,-0.04318 C 50.420454,12.012273 50.300909,12 50.181364,12 H 39.272727 c -1.004091,0 -1.818181,0.814091 -1.818181,1.818182 0,1.004091 0.81409,1.818182 1.818181,1.818182 h 6.519546 L 30.896818,30.531818 c -0.71,0.71 -0.71,1.861364 0,2.570909 0.71,0.71 1.861364,0.71 2.570909,0 L 48.363636,18.207273 v 6.52 c 0,1.004091 0.814091,1.818181 1.818182,1.818181 C 51.185909,26.545454 52,25.731364 52,24.727273 V 13.818182 c 0,-0.0064 -0.0018,-0.01227 -0.0018,-0.01909 z"
      inkscape:connector-curvature="0"
      style="fill:#ffffff;fill-opacity:1;stroke-width:0"/>
</svg>

<?xml version="1.0" encoding="utf-8" standalone="no"?>
<svg version="1.0" width="64" height="64" xmlns="http://www.w3.org/2000/svg">
  <rect style="fill:none;opacity:0" width="64" height="64"/>
  <g style="fill:#ffffff">
    <path style="opacity:0.5;fill:#ffffff" d="m 50.2,32 c -1,0 -1.8,0.8 -1.8,1.8 v 12.7 c 0,1 -0.8,1.9 -1.8,1.9 H 17.5 c -1.1,0 -1.9,-0.9 -1.9,-1.9 v -29 c 0,-1 0.8,-1.9 1.8,-1.9 h 12.8 c 1,0 1.8,-0.8 1.8,-1.8 0,-1 -0.8,-1.8 -1.8,-1.8 H 17.5 C 14.4,12 12,14.4 12,17.5 v 29 c 0,3.1 2.4,5.5 5.5,5.5 h 29 C 49.6,52 52,49.6 52,46.5 V 33.8 C 52,32.8 51.2,32 50.2,32 z"/>
    <path d="M 52,13.8 C 52,12.8 51.1,12 50.2,12 H 39.3 c -1,0 -1.8,0.8 -1.8,1.8 0,1 0.8,1.8 1.8,1.8 h 6.5 L 30.9,30.5 c -0.7,0.7 -0.7,1.9 0,2.6 0.7,0.7 1.9,0.7 2.6,0 L 48.4,18.2 v 6.5 c 0,1 0.8,1.8 1.8,1.8 1,0 1.8,-0.8 1.8,-1.8 z"/>
  </g>
</svg>
